X: 1466
T: Nevâ Sazsemâîsi
C: Yusuf Ziya Paşa
O: Turkey
F: http://compmusic.upf.edu/node/140
N: neva--sazsemaisi--aksaksemai----yusuf_ziya_pasa
N: makam= neva
N: form= sazsemaisi
N: usul= aksaksemai = 10/8
M: 10/8
L: 1/16
K: C _2/4B ^3/4f  
Q: 1/4=132
%%MIDI tuningsystem comma53
d4 A2_1/4Bc _2/4B2cd c2d6  | G4 A2A4c2 BAA4z2  | \
w:  1. HANE  |   | 
g4 a2ac' baag =fed6  | 
w:   | 
e=fef edgf edc3ed4z2  | e2=f2 g2ef eded cdc4B2  | 
w:   |   | 
g4 f2f3de2 ^c2.d4.g2  | .f4 .g2.f4ef efd2 efg2  | \
w:   |  TESLİM  | 
.^f4 .g2.f4e^3/4f efd4e2  | 
w:   | 
d2c2 B2c3Bg2 fed4g2  | .f4 .g2.f4ef efd2 efg2  | 
w:   |  TESLİM  | 
.^f4 .g2.f4e^3/4f efd4e2  | d2c2 B2c3BB2 {c}BAA4z2  | \
w:   |   | 
A4 =B2^c4d4e4^f2  | 
w:  2. HANE  | 
g2a2 g^ffe d2ag gff4z2  | A4 =B2^c4d4e4^f2  | \
w:   |   | 
g2a2 g^ffe d2e2 {f}edd4z2  | 
w:   | 
eddc cBB3AA2 {c}BAA4z2  | ^f3e d2a2 gffe fe.d4.g2  | 
w:   |   | 
.f4 .g2.f4ef efd2 efg2  | .^f4 .g2.f4e^3/4f efd4e2  | \
w:  TESLİM  |   | 
d2c2 B2c3Bg2 fed4g2  | 
w:   | 
.f4 .g2.f4ef efd2 efg2  | .^f4 .g2.f4e^3/4f efd4e2  | \
w:  TESLİM  |   | 
d2c2 B2c3BB2 {c}BAA4z2  | 
w:   | 
a4 ^g2a4g2 a2=b2 a2g2  | ^f4 ^e2f4e2 f2g2 {a}gff2  | \
w:  3. HANE  |   | 
d4 e2e4e2 =fge4d2  | 
w:   | 
c2=B2 A2d2 cBBA A^GA4z2  | ^f4 f2f4gf gaf4z2  | 
w:   |   | 
d2e2 e2e=f eded dc.d4.g2  | .f4 .g2.f4ef efd2 efg2  | 
w:   |  TESLİM  | 
.^f4 .g2.f4e^3/4f efd4e2  | d2c2 B2c3Bg2 fed4g2  | \
w:   |   | 
.f4 .g2.f4ef efd2 efg2  | 
w:  TESLİM  | 
.^f4 .g2.f4e^3/4f efd4e2  | d2c2 B2c3BB2 {c}BAA4z2  | z12  | \
w:   |   |  | 
A4=B2^c4d2  | 
w:  4. HANE  | 
e4^f2a4g2  | ^f4d2e4^c2  | d4A2^F2E2D2  | \
w:   |   |   | 
A4=B2^c4d2  | e4^f2a4g2  | 
w:   |   | 
^f4d2e4^c2  | d6d6  | d4e2c4d2  | =B4c2A4B2  | \
w:   |   |   |   | 
G4^F2F2E2D2  | E4d2d4z2  | 
w:   |   | 
d4e2c4d2  | =B4c2A4B2  | G4^F2F2E2D2  | \
w:   |   |   | 
E4^C2D4z2  | ^F4EDG4FE  | 
w:   |   | 
A4G^F=B4AG  | A4G^FF4ED  | E4A2A4z2  | ^F4EDG4FE  | 
w:   |   |   |   | 
A4G^F=B4AG  | A4G^FF4ED  | E4^C2D4.g2  | z20  | \
w:   |   |   |  | 
.f4 .g2.f4ef efd2 efg2  | 
w:  TESLİM  | 
.^f4 .g2.f4e^3/4f efd4e2  | d2c2 B2c3Bg2 fed4g2  | \
w:   |   | 
.f4 .g2.f4ef efd2 efg2  | 
w:  TESLİM  | 
.^f4 .g2.f4e^3/4f efd4e2  | d2c2 B2c3BB2 {c}BAA4z2  | |


